X:1
T:Saved
T:Saved
T:H. E. Bright
T:H. E. Bright, 1913
T:Public Domain Courtesy of the Cyber Hymnal™
T:Public Domain Courtesy of the Cyber Hymnal™
C:H. E. Bright
Z:Public Domain
Z:Courtesy of the Cyber Hymnal™
%%score ( 1 2 ) ( 3 4 )
L:1/8
Q:1/4=105
M:9/8
K:C
V:1 treble 
V:2 treble 
V:3 bass 
V:4 bass 
V:1
 [CE][DF][^D^F] | [EG]3 [Ge]3 [Gc]2 [FA] | [EG]3 [CE]3 [EG][FA][EG] | [DF]3 [B,D]3 [FA][FB][FA] | %4
w: 1.~Je- sus my|Sav- ior came to|save me When I was|wan- d’ring out in the|
w: 2.~Je- sus my|Sav- ior came to|cleanse me, Car- nal in|heart and fight- ings with-|
w: 3.~Je- sus my|Sav- ior came to|guide me, O- ver the|moun- tains, down thro’ the|
w: 4.~Je- sus my|Sav- ior soon will|call me Home to my|man- sions, shin- ing a-|
 [EG]3- [EG]2 z [CE][DF][^D^F] | [EG]3 [Ge]3 [Gc]2 [FA] | [EG]3 [CE]3 [EG][EA][E^A] | %7
w: night; * Rich- es of|glo- ry free- ly|gave me; Flood- ed my|
w: in; * Now I en-|joy His pre- cious|full- ness, Pow- er and|
w: vale; * Still He is|with me, strong to|keep me; Fol- low- ing|
w: bove; * There I shall|see Him in His|glo- ry, Praise and a-|
 [DB]3 [Dd]2 [DB] ([DA][^Fc])[DF] | [DG]6 ||"^Refrain" G3 | [Ge]3 [Ge]3 [Fd][Fc][FA] | %11
w: soul with His won- * drous|light.|||
w: vic- t’ry o’er in- * bred|sin.|||
w: Him I shall nev- * er|fail.|||
w: dore Him in songs * of|love.|||
 [EG]3 [CE]3 [EG][FA][EG] | [DF]3 [B,D]3 [FA][FB][FA] | [EG]3 [CE]2 z G3 | %14
w: |||
w: |||
w: |||
w: |||
 [Ge]3 [Ge]3 [Fd][Fc][FA] | [EG]3 [CE]3 [CE][B,F][CG] | [FA][FB][^Fc] [=Fd]3- [Fd]2 [Ec] | %17
w: |||
w: |||
w: |||
w: |||
 [Ec]3- [Ec]2 z |] %18
w: |
w: |
w: |
w: |
V:2
 x3 | x9 | x9 | x9 | x9 | x9 | x9 | x9 | x6 || G3 | x9 | x9 | x9 | x6 G3 | x9 | x9 | x9 | x6 |] %18
V:3
 [C,G,][C,G,][C,A,] | [C,C]3 [C,C]3 [E,C]2 [F,C] | [C,C]3 [C,G,]3 [C,C][C,C][C,C] | %3
w: ~ ~ ~|~ ~ ~ ~|~ ~ ~ ~ ~|
 [G,,B,]3 [G,,G,]3 [G,,B,][G,,B,][G,,B,] | [C,C]3- [C,C]2 z [C,G,][C,G,][C,A,] | %5
w: ~ ~ ~ ~ ~|~ * ~ ~ ~|
 [C,C]3 [C,C]3 [E,C]2 [F,C] | [C,C]3 [C,G,]3 [C,C][C,C][^C,G,] | %7
w: ~ ~ ~ ~|~ ~ ~ ~ ~|
 [D,G,]3 [D,B,]2 [D,G,] (^F,A,)[D,C] | [G,,B,]6 || [G,B,]3 | [C,C]3 [C,_B,]3 [F,A,][F,A,][F,C] | %11
w: ~ ~ ~ ~ * ~|~|I’m|saved! saved! this is my|
 [C,C]3 [C,G,]3 [C,C][C,C][C,C] | [G,,B,]3 [G,,G,]3 [G,,B,][G,,B,][G,,B,] | %13
w: sto- ry: Je- sus my|Sav- ior cleans- es and|
 [C,C]3 [C,G,]2 z [G,B,]3 | [C,C]3 [C,_B,]3 [F,A,][F,A,][F,C] | [C,C]3 [C,G,]3 [C,G,][D,G,][E,C] | %16
w: keeps me! I’m|saved! saved! filled with His|glo- ry! Glo- ry to|
 [F,C]G,[A,C] [G,,G,B,]3- [G,,G,B,]2 [C,G,] | [C,G,]3- [C,G,]2 z |] %18
w: Je- sus, His grace * is|free. *|
V:4
 x3 | x9 | x9 | x9 | x9 | x9 | x9 | x6 D,2 x | x6 || x3 | x9 | x9 | x9 | x9 | x9 | x9 | x G, x7 | %17
 x6 |] %18

